icons/volume-two-color.svg

<?xml version="1.0" encoding="UTF-8"?><svg id="uuid-3ca4ff3b-2b50-4448-848a-4f2e6a418b82" xmlns="http://www.w3.org/2000/svg" viewBox="0 0 50 50"><path d="M10.1,33.81l13.04,10.25V8.94l-13.04,10.25c-.09,.07-.2,.11-.31,.11H3.13v14.41h6.66c.11,0,.22,.04,.31,.11Z" fill="#ffcd00"/><g><path d="M26.64,14.48c-.21-.17-.53-.14-.7,.07-.17,.21-.14,.53,.07,.7,1.06,.87,4.55,4.13,4.77,9.47,.25,6.29-4.36,10.18-4.88,10.6-.22,.17-.25,.49-.08,.7,.1,.12,.24,.19,.39,.19,.11,0,.22-.04,.31-.11,.57-.45,5.53-4.64,5.26-11.42-.23-5.76-3.99-9.27-5.14-10.2Z"/><path d="M40.6,24.78c-.47-10.11-7.59-15.95-9.01-17.02-.22-.17-.53-.12-.7,.1-.17,.22-.12,.53,.1,.7,1.36,1.02,8.17,6.61,8.61,16.27,.45,9.85-6.03,16.08-7.34,17.23-.21,.18-.23,.5-.04,.71,.1,.11,.24,.17,.38,.17,.12,0,.24-.04,.33-.12,1.37-1.2,8.15-7.71,7.68-18.02Z"/><path d="M49.34,24.29C48.68,10.12,38.69,1.91,36.7,.41c-.22-.17-.54-.12-.7,.1-.17,.22-.12,.53,.1,.7,1.93,1.46,11.61,9.41,12.24,23.13,.65,14.03-8.57,22.86-10.43,24.48-.21,.18-.23,.5-.05,.71,.1,.11,.24,.17,.38,.17,.12,0,.24-.04,.33-.12,1.92-1.68,11.44-10.8,10.77-25.28Z"/><path d="M1.13,33.21h6.99l13.71,10.78c.09,.07,.2,.11,.31,.11,.07,0,.15-.02,.22-.05,.17-.08,.28-.26,.28-.45V6.41c0-.19-.11-.37-.28-.45-.17-.08-.38-.06-.53,.06l-13.71,10.78H1.13c-.28,0-.5,.22-.5,.5v15.41c0,.28,.22,.5,.5,.5Zm.5-15.41h6.66c.11,0,.22-.04,.31-.11L21.64,7.44V42.56l-13.04-10.25c-.09-.07-.2-.11-.31-.11H1.63v-14.41Z"/></g></svg>

<svg id="a931b818-9bf5-483d-a6f9-48b920244000" data-name="ICONS" xmlns="http://www.w3.org/2000/svg" viewBox="0 0 50 50"><path d="M10.1,33.81l13,10.25V8.94l-13,10.25a.49.49,0,0,1-.31.11H3.13V33.71H9.79A.48.48,0,0,1,10.1,33.81Z" fill="#fdd600"/><path d="M26.64,14.48a.5.5,0,1,0-.63.77,13.27,13.27,0,0,1,4.77,9.47,13.61,13.61,0,0,1-4.89,10.61.49.49,0,0,0-.07.7.49.49,0,0,0,.7.08c.57-.46,5.53-4.64,5.26-11.43A14.24,14.24,0,0,0,26.64,14.48Z" fill="#231f20"/><path d="M40.6,24.78a23.43,23.43,0,0,0-9-17,.51.51,0,0,0-.7.1.5.5,0,0,0,.1.7A22.39,22.39,0,0,1,39.6,24.82a22.31,22.31,0,0,1-7.34,17.23.51.51,0,0,0,0,.71.5.5,0,0,0,.37.17.46.46,0,0,0,.33-.13A23.34,23.34,0,0,0,40.6,24.78Z" fill="#231f20"/><path d="M49.34,24.29C48.68,10.12,38.69,1.91,36.7.41a.49.49,0,0,0-.7.1.5.5,0,0,0,.09.7C38,2.66,47.7,10.61,48.34,24.33c.65,14-8.58,22.86-10.43,24.49a.49.49,0,0,0,0,.7.48.48,0,0,0,.38.17.52.52,0,0,0,.33-.12C40.48,47.89,50,38.77,49.34,24.29Z" fill="#231f20"/><path d="M1.13,33.21h7L21.83,44a.45.45,0,0,0,.31.11.44.44,0,0,0,.22-.05.5.5,0,0,0,.28-.45V6.41A.5.5,0,0,0,22.36,6a.51.51,0,0,0-.53.06L8.12,16.8h-7a.5.5,0,0,0-.5.5V32.71A.5.5,0,0,0,1.13,33.21Zm.5-15.41H8.29a.49.49,0,0,0,.31-.11l13-10.25V42.56L8.6,32.31a.48.48,0,0,0-.31-.1H1.63Z" fill="#231f20"/></svg>
